public/icons/youtube_icon.svg

<svg width="30" height="30" viewBox="0 0 30 30" fill="none" xmlns="http://www.w3.org/2000/svg">
<circle cx="15" cy="15" r="15" fill="#FCFCFC"/>
<path d="M22.3332 13.4733C22.3662 12.5191 22.1575 11.572 21.7265 10.72C21.4341 10.3704 21.0283 10.1345 20.5799 10.0533C18.7249 9.88501 16.8622 9.81602 14.9999 9.84666C13.1443 9.81463 11.2883 9.88139 9.43986 10.0467C9.0744 10.1131 8.7362 10.2846 8.46652 10.54C7.86652 11.0933 7.79986 12.04 7.73319 12.84C7.63646 14.2784 7.63646 15.7216 7.73319 17.16C7.75248 17.6103 7.81952 18.0572 7.93319 18.4933C8.01357 18.83 8.1762 19.1416 8.40652 19.4C8.67803 19.669 9.02411 19.8501 9.39986 19.92C10.8371 20.0974 12.2853 20.1709 13.7332 20.14C16.0665 20.1733 18.1132 20.14 20.5332 19.9533C20.9182 19.8878 21.274 19.7064 21.5532 19.4333C21.7398 19.2466 21.8792 19.0181 21.9599 18.7667C22.1983 18.0351 22.3154 17.2694 22.3065 16.5C22.3332 16.1267 22.3332 13.8733 22.3332 13.4733ZM13.4932 16.9V12.7733L17.4399 14.8467C16.3332 15.46 14.8732 16.1533 13.4932 16.9Z" fill="#4E4B66"/>
</svg>

<svg width="30" height="30" fill="none" xmlns="http://www.w3.org/2000/svg"><circle cx="15" cy="15" r="15" fill="#FCFCFC"/><path d="M22.333 13.473a5.666 5.666 0 0 0-.606-2.753 1.947 1.947 0 0 0-1.147-.667A52.247 52.247 0 0 0 15 9.847a52.288 52.288 0 0 0-5.56.2 1.913 1.913 0 0 0-.973.493c-.6.553-.667 1.5-.734 2.3a32.192 32.192 0 0 0 0 4.32c.02.45.087.897.2 1.333.08.337.243.649.474.907.271.269.617.45.993.52 1.437.177 2.885.25 4.333.22 2.334.033 4.38 0 6.8-.187a1.915 1.915 0 0 0 1.02-.52c.187-.186.326-.415.407-.666a7.053 7.053 0 0 0 .346-2.267c.027-.373.027-2.627.027-3.027Zm-8.84 3.427v-4.127l3.947 2.074c-1.107.613-2.567 1.306-3.947 2.053Z" fill="#4E4B66"/></svg>
